X: 1
T: Inisheer
C: Thomas Walsh (1987?)
R: waltz
%O: trad. Ireland
S: NEFFA 2022 set
Z: 2022 John Chambers <jc:trillian.mit.edu>
M: 3/4
L: 1/8
Q: 1/4=99
K: G
D GA |\
"G"B3 A Bd | "G/B"B3 A Bd | "C"E3 B AB | "D"D3 d B/A/G |
"G"B3 A "D/F#"Bd | "Em"B3 A "D"Bd | "C"G3 B "D"A/G/F | "G"G3 :|
|: A Bd |\
"C"e3 f ed | "G"B3 A Bd | "C"gf ed B/c/d | e3 d "G/B"Bd |
"Am"e3 f "D"ed | "Em"B3 A "G/D"Bd | "C"G3 B "D"A/G/F | "G"G3- "^D.C."y:|["fine" HG3 |]
